X:1
T:Mai piu Donna mi voglio
T:Cola M. de Pizziolis
T:Source : Primo libro delle villanelle a 3 voci---Venetia---Figlio d'A.Gardano---1574. Editor : André Vierendeels (13/03/16).
T:Notes : Original clefs : C1, C2, C4 Editorial accidentals above the staff Music by composers from Bari, collected by Giovanni de Antiquis "Alla napolitana"
T:Mai piu Donna mi voglio
T:©
T:©
C:Cola M. de Pizziolis
Z:©
%%score [ 1 2 3 ]
L:1/8
Q:1/4=120
M:4/4
K:F
V:1 treble nm="Soprano 1" snm="S 1"
V:2 treble nm="Soprano 2" snm="S 2"
V:3 treble-8 nm="Tenor" snm="T"
V:1
 A4 G4- | G2 D2 F2 F2 | E4 D4 | z4 d4 | c4 B4 | A2 A2 B3 A |[M:2/4] G3 F |[M:3/4] E4 D2 :: D2 D4 | %9
w: 1) Mai piu|_ Don- na mi|vo- glio,|mai|piu Don-|na mi vo- glio'in-|* mo-|ra- re,|per che|
w: 2) Ne piu|_ _ _ di|Don- na,|ne|piu di|don- na mi vo-|glio fi-|da- re,|che tut-|
w: 3) Piu sord'|_ a no- stri|pre- ghi,|piu|sord' a|no- stri pre- ghi|mi vo|fa- re,|da quei|
w: 4. Mi- ra-|* te- ve ben|Don- ne,|mi-|ra- te-|ve ben Don- ne|a par-|par- te,|che non|
[M:4/4] D4 E4 | E4 F4 | E4 c2 B2 | A4 G2 G2 | d4 c4 | B4 A4 | z2 A2 d2 d2 | c3 B A2 A2 | G3 F E4 | %18
w: tor- men-|ti'e guai,|da voi n'at-|ten- do, che|ben ex-|1)per- to,|che ben ex-|per- to, vo- stre|frod' in- ten-|
w: ta pien|d'in- gan-|ni, vi com-|pren- do, che|ben ex-|2)per- to,|che ben ex-|per- to, vo- stre|frod' in- ten-|
w: ch'as- sor-|da'il il|Nil, d'al- *|ca- do, che|ben ex-|3)per- to,|3)che ben ex-|per- to, vo- stre|frod' in- ten-|
w: tro- va-|te'in 4)voi|buon u- na|par- te, ch'i-|o ne|4)pos- so,|ch'io ne pos-|so par- lar co-|me per ar-|
 D8 :| %19
w: do.|
w: do.|
w: do.|
w: te.|
V:2
 F4 _E4- | E2 B,2 C2 D2- | D2 C2 D2 F2 | E4 D2 G2- | G2 ^F2 G2 D2 | F2 F2 D3 F |[M:2/4] E2 D2- | %7
w: 1) Mai piu|_ Don- na mi|_ vo- glio, mai|piu Don- na|_ mi vo- glio'in-|1) mo- ra- *||
w: 2) Ne piu|_ _ di Don-|* * na, ne|piu di don-|* * na mi|vo- glio fi- *|* da-|
[M:3/4] D2 C2 D2 :: A,2 D2 C2 |[M:4/4] D3 C B,2 _E2 | D2 E2 F2 F2 | E3 D EF G2- | G2 ^F2 G4 | %13
w: * * re,|per che tor-|men- * * ti'e|guai, i'e gua- i,|da _ voi _ n'at-|* ten- do,|
w: * * re,|che tut- ta|pien _ _ d'in-|gan- * * ni,|vi com- pren- * *|* * do,|
 z2 D2 A4 | G4 F4 | E2 E2 F2 G2 | A2 E2 F3 E |"^#" D2 D4 C2 | D8 :| %19
w: che ben|ex- 1)per-|to, che ben ex-|per- to, vo- stre|frod' in- ten-|do.|
w: che ben|ex- 2)per-|to, che ben ex-|per- to, vo- stre|frod' in- ten-|do.|
V:3
 F4 C4- | C2 G2 F2 D2 | A4 D2 d2 | c4 B4 | A2 A2 G4 | d2 d2 G3 F |[M:2/4] G2 G2 |[M:3/4] A4 D2 :: %8
w: 3) Piu sord'|_ a no- stri|pre- ghi, piu|sord' a|no- stri pre-|ghi mi vo _|_ fa-|* re,|
w: 4. Mi- ra-|* te- ve ben|Don- ne, mi-|ra- te-|ve ben Don-|ne a par- *|te, a|par- te|
 F2 B2 A2 |[M:4/4] B3 A G2 c2 | =B2 c2 FGAB | c3 B A2 G2 | d4 G4 | z8 | G4 d2 d2 | c4 B4 | A4 F4 | %17
w: da quei ch'as-|sor- * * da'il|Nil, d'al- to _ _ _|_ ca- den- *|* do.||3)che ben ex-|per- to,|vo- stre|
w: che non tro-|va- * * te'in|4)voi buon u- * * *|* * * na|par- te,||ch'i- ne pos-|so par-|lar co-|
 G2 G2 A4 | D8 :| %19
w: frod' in- ten-|do.|
w: me per ar-|te.|

